X:1
T:Kalmar, 87.87.77
T:Kalmar, 87.87.77
T:Swedish Tune, 1676
T:Public Domain Courtesy of the Cyber Hymnal™
C:Swedish Tune, 1676
Z:Public Domain
Z:Courtesy of the Cyber Hymnal™
%%score ( 1 2 ) ( 3 4 )
L:1/8
Q:1/4=113
M:4/4
K:F
V:1 treble 
V:2 treble 
V:3 bass 
V:4 bass 
V:1
 [A,F]2 [A,F]2 [B,D]2 [B,D]2 | [CE]2 C2 [CF]2 [CF]2 | [CA]2 [FB]2 [CG]2 [Ec]2 | %3
 [Dc]2 [D=B]2 [Ec]4 | [A,F]2 [A,F]2 [B,D]2 [B,D]2 | [CE]2 C2 [CF]2 [CF]2 | %6
 [CA]2 [FB]2 [CG]2 [Ec]2 | [Dc]2 [D=B]2 [Ec]4 | [Fc]2 [FA]2 [Fd]2 [Fc]2 | [DB]2 [FA]2 [EG]4 | %10
 [CA]2 [DF]2 [DB]2 [DA]2 | [DG]2 [DG]2 [A,F]4 |] %12
V:2
 x8 | x2 C2 x4 | x8 | x8 | x8 | x2 C2 x4 | x8 | x8 | x8 | x8 | x8 | x8 |] %12
V:3
 F,2 [D,F,]2 [B,,F,]2 [G,,G,]2 | [C,G,]2 [C,E,]2 [F,,A,]2 [F,A,]2 | F,2 [D,F,]2 [E,G,]2 [C,G,]2 | %3
 [F,A,]2 G,2 [C,G,]4 | F,2 [D,F,]2 [B,,F,]2 [G,,G,]2 | [C,G,]2 [C,E,]2 [F,,A,]2 [F,A,]2 | %6
 F,2 [D,F,]2 [E,G,]2 [C,G,]2 | [F,A,]2 G,2 [C,G,]4 | [A,,C]2 [F,,C]2 [B,,B,]2 [F,A,]2 | %9
 [G,B,]2 [F,C]2 [C,C]4 | [F,A,]2 [D,A,]2 [G,,G,]2 [A,,F,]2 | [B,,F,]2 [C,E,]2 [F,,F,]4 |] %12
V:4
 F,2 x6 | x8 | F,2 x6 | x2 G,2 x4 | F,2 x6 | x8 | F,2 x6 | x2 G,2 x4 | x8 | x8 | x8 | x8 |] %12

